!!!!SEGMENT: pl-kk--kk-i-7--042_anonim--veni-sponsa-christi.krn
!!!cenid: 16xx:841
!!!COM: Anonim
!!!COM-rismID: pe30004985
!!!CDT:
!!!CNT:
!!!OTL: Veni sponsa Christi
!!!PDT:
!!!AGN: Sacred
!!!SMS-siglum: PL-Kk
!!!SMS-shelfmark: Kk.I.7
!!!SMS-shelfwork: 042 W
!!!SMS-variant:
!!!SMS-altvar:
!!!NIFC-rismSourceID: 300258119
!!!NIFC-islandoraID: pl-kk:1956
!!!URL-pdf-islandora: https://repozytorium.nifc.pl/islandora/object/pl-kk%3A1956/datastream/PDF/view
!!!URL-scan: https://polish.musicsources.pl/pl/lokalizacje/galeria/rekopisy/6140 @EN{Scan on Polish Music Herritage in Open Access Website} @PL{Skany w portalu Dziedzictwo Muzyki Polskiej w otwartym dostępie}
!!!ONB-nifc: UWAGA: C (skan 0038, s.70), A (0122, s.64), T (0198, s.60), B (0288, s.62). Następny utwór: Haec est virgo sapiens
!!!AIN: 1 alto 1 bass 1 soprn 1 tenor
!!!key:
**kern	**text	**kern	**text	**kern	**text	**kern	**text
*part4	*part4	*part3	*part3	*part2	*part2	*part1	*part1
*staff4	*staff4	*staff3	*staff3	*staff2	*staff2	*staff1	*staff1
*Ibass	*	*Itenor	*	*Ialto	*	*Isoprn	*
*I"BASSVS.	*	*I"TENOR.	*	*I"ALTVS.	*	*I"CANTVS.	*
*I'B	*	*I'T	*	*I'A	*	*I'S	*
*clefF3	*	*clefC3	*	*clefC2	*	*clefG2	*
*k[]	*	*k[]	*	*k[]	*	*k[]	*
*C:	*	*C:	*	*C:	*	*C:	*
*M2/1	*	*M2/1	*	*M2/1	*	*M2/1	*
*met(C|)	*	*met(C|)	*	*met(C|)	*	*met(C|)	*
=1-	=1-	=1-	=1-	=1-	=1-	=1-	=1-
!LO:TX:a:t=10.	!	!	!	!LO:TX:t=P:problem=kreska pseudotaktowa	!	!	!
!LO:TX:a:t=De S(an)ctis\nVirginibus.	!	!LO:TX:a:t=De S(an)ctis Virginibus	!	!LO:TX:a:t=De S[an]ctis\nVirginib(us).	!	!LO:TX:a:t=De S[an]ctis Virginib(us).	!
!LO:TX:b:t=Intonatio	!	!	!	!	!	!	!
00r	.	00r	.	0r	.	0dd	Ve-
=2-	=2-	=2-	=2-	=2-	=2-	=2-	=2-
!	!	!	!	!	!	!LO:TX:t=P:problem=kreska pseudotaktowa	!
.	.	.	.	0g	Ve-	1b	-ni
!	!	!	!	!	!	!LO:TX:t=P:problem=kreska pseudotaktowa	!
.	.	.	.	.	.	1dd	Spon-
=3-	=3-	=3-	=3-	=3-	=3-	=3-	=3-
!	!	!LO:TX:t=P:problem=kreska pseudotaktowa	!	!	!	!LO:TX:t=P:problem=kreska pseudotaktowa	!
00r	.	00r	.	1e	-ni	1ee	-sa
*	*	*	*	*	*	*2\right	*
.	.	.	.	1g	Spon-	2.dd\	Chri-
.	.	.	.	.	.	8cc\L	.
!	!	!	!	!	!	!LO:TX:t=P:problem=kreska pseudotaktowa	!
.	.	.	.	.	.	8b\J	.
=4-	=4-	=4-	=4-	=4-	=4-	=4-	=4-
!	!	!	!	!LO:TX:t=P:problem=kreska pseudotaktowa	!	!	!
.	.	.	.	1a	-sa	4cc\	.
.	.	.	.	.	.	4dd\	.
.	.	.	.	.	.	2.ee\	.
*	*	*	*	*2\right	*	*	*
.	.	.	.	2.g\	Chri-	.	.
.	.	.	.	.	.	4dd\	.
.	.	.	.	.	.	4b\	.
!	!	!	!	!	!	!LO:TX:t=P:problem=kreska pseudotaktowa	!
!	!	!	!	!	!	!LO:SIC:v:s=4cc#	!
.	.	.	.	8f\L	.	4cc\	.
.	.	.	.	8e\J	.	.	.
=5-	=5-	=5-	=5-	=5-	=5-	=5-	=5-
!LO:TX:t=P:problem=kreska pseudotaktowa	!	!	!	!	!	!	!
0r	.	0d	Ve-	2f\	.	2.dd\	.
.	.	.	.	1g	.	.	.
.	.	.	.	.	.	8cc\L	.
!	!	!	!	!	!	!LO:TX:t=P:problem=kreska pseudotaktowa	!
.	.	.	.	.	.	8b\J	.
!	!	!	!	!	!	!LO:TX:t=P:problem=kreska pseudotaktowa	!
.	.	.	.	.	.	1a	.
!	!	!	!	!LO:SIC:v:s=2f#	!	!	!
.	.	.	.	2f\	.	.	.
=6-	=6-	=6-	=6-	=6-	=6-	=6-	=6-
!LO:TX:t=P:problem=kreska pseudotaktowa	!	!	!	!LO:TX:t=P:problem=kreska pseudotaktowa	!	!	!
0G	Ve-	1B	-ni	1g	-sti	2.dd\	.
.	.	.	.	.	.	4cc\	.
!	!	!	!	!LO:TX:t=P:problem=kreska pseudotaktowa	!	!	!
.	.	1d	Spon-	1rb	.	4b/	.
.	.	.	.	.	.	4a/	.
!	!	!	!	!	!	!LO:TX:t=P:problem=kreska pseudotaktowa	!
.	.	.	.	.	.	2g/	-sti
=7-	=7-	=7-	=7-	=7-	=7-	=7-	=7-
!LO:TX:t=P:problem=kreska pseudotaktowa	!	!LO:TX:t=P:problem=kreska pseudotaktowa	!	!	!	!	!
1E	-ni	1e	-sa	0g	ve-	00r	.
*	*	*2\right	*	*	*	*	*
!LO:TX:t=P:problem=kreska pseudotaktowa	!	!	!	!	!	!	!
1G	Spon-	2.d\	Chri-	.	.	.	.
.	.	8c/L	.	.	.	.	.
.	.	8B/J	.	.	.	.	.
=8-	=8-	=8-	=8-	=8-	=8-	=8-	=8-
!LO:TX:t=P:problem=kreska pseudotaktowa	!	!	!	!	!	!	!
1A	-sa	4c\	.	1e	-ni	.	.
.	.	4d\	.	.	.	.	.
.	.	4e\	.	.	.	.	.
.	.	4c\	.	.	.	.	.
*2\right	*	*	*	*	*	*	*
2.G\	Chri-	2d\	.	1g	Spon-	.	.
!	!	!LO:TX:t=P:problem=kreska pseudotaktowa	!	!	!	!	!
.	.	2e\	.	.	.	.	.
8F\L	.	.	.	.	.	.	.
!LO:TX:t=P:problem=kreska pseudotaktowa	!	!	!	!	!	!	!
8E\J	.	.	.	.	.	.	.
=9-	=9-	=9-	=9-	=9-	=9-	=9-	=9-
!	!	!	!	!LO:TX:t=P:problem=kreska pseudotaktowa	!	!LO:TX:t=P:problem=kreska pseudotaktowa	!
4F\	.	2A,/	-sti	1a	-sa	1r	.
4G\	.	.	.	.	.	.	.
4A\	.	1c	Spon-	.	.	.	.
!LO:TX:t=P:problem=kreska pseudotaktowa	!	!	!	!	!	!	!
4F\	.	.	.	.	.	.	.
1G	.	.	.	4g\	Chri-	0dd	Ve-
.	.	.	.	4d/	.	.	.
.	.	2B/	.	1g\	.	.	.
=10-	=10-	=10-	=10-	=10-	=10-	=10-	=10-
!LO:TX:t=P:problem=kreska pseudotaktowa	!	!	!	!	!	!	!
1D	-sti	1A	-sa	.	.	.	.
.	.	.	.	2f#X\	.	.	.
!LO:TX:t=P:problem=kreska pseudotaktowa	!	!	!	!LO:TX:t=P:problem=kreska pseudotaktowa	!	!LO:TX:t=P:problem=kreska pseudotaktowa	!
1rc	.	2.G/	Chri-	1g,	-sti	1b	-ni
.	.	4A/	.	.	.	.	.
=11-	=11-	=11-	=11-	=11-	=11-	=11-	=11-
1G	Ve-	4B/	.	1g	ac-	1dd	Spon-
.	.	4c/	.	.	.	.	.
.	.	2d\	.	.	.	.	.
!LO:TX:t=P:problem=kreska pseudotaktowa	!	!	!	!	!	!LO:TX:t=P:problem=kreska pseudotaktowa	!
1C	-ni	2G,/	-sti,	2g\	-ci-	1ee	-sa
.	.	1g\	Ve-	1cc\	-pe	.	.
=12-	=12-	=12-	=12-	=12-	=12-	=12-	=12-
1.G	Spon-	.	.	.	.	2.dd\	Chri-
.	.	2g\	-ni	4b\	.	.	.
!	!	!	!	!	!	!LO:TX:t=P:problem=kreska pseudotaktowa	!
.	.	.	.	4a\	.	4cc\	.
*	*	*	*	*custos:a	*	*	*
!	!	!	!	!LO:TX:t=P:problem=kreska pseudotaktowa	!	!	!
!	!	!	!	!	!	!LO:LB:g=original	!
.	.	2d\	Spon-	1g	.	4b\	.
.	.	.	.	.	.	8a\L	.
.	.	.	.	.	.	8b\J	.
!LO:TX:t=P:problem=kreska pseudotaktowa	!	!	!	!	!	!LO:TX:t=P:problem=kreska pseudotaktowa	!
2E/	-sa	2e\	-sa	.	.	2cc\	.
!	!	!	!	!LO:LB:g=original	!	!	!
=13-	=13-	=13-	=13-	=13-	=13-	=13-	=13-
2.F/	X-	1.c	X-	1a	Co-	2a/	.
!	!	!	!	!	!	!LO:TX:t=P:problem=kreska pseudotaktowa	!
.	.	.	.	.	.	[<2ff\	.
!LO:TX:t=P:problem=kreska pseudotaktowa	!	!	!	!	!	!	!
4E/	.	.	.	.	.	.	.
1D	.	.	.	4fn\	ro-	2ff\]	.
.	.	.	.	4g\	.	.	.
!	!	!LO:TX:t=P:problem=kreska pseudotaktowa	!	!	!	!	!
.	.	2B/	.	4a\	.	2ff,\	-sti
.	.	.	.	4f\	.	.	.
=14-	=14-	=14-	=14-	=14-	=14-	=14-	=14-
!LO:TX:t=P:problem=kreska pseudotaktowa	!	!	!	!	!	!	!
1C	-ti,	2c,/	-ti;	2g,\	-nam	2ee\	Spon-
*	*	*	*	*	*ij	*	*
!	!	!	!	!	!	!LO:TX:t=P:problem=kreska pseudotaktowa	!
.	.	1g	ac-	2e/	Co-	2cc\	-sa
!LO:TX:t=P:problem=kreska pseudotaktowa	!	!	!	!	!	!	!
0r	.	.	.	1d	-ro-	4dd\	Chri-
.	.	.	.	.	.	8cc\L	.
.	.	.	.	.	.	8b\J	.
*	*	*custos:g	*	*	*	*	*
!	!	!LO:TX:t=P:problem=kreska pseudotaktowa	!	!	!	!LO:TX:t=P:problem=kreska pseudotaktowa	!
!	!	!LO:SIC:v:s=2f#	!	!	!	!	!
.	.	2f\	-ci-	.	.	2a/	.
!	!	!LO:LB:g=original	!	!	!	!	!
=15-	=15-	=15-	=15-	=15-	=15-	=15-	=15-
!	!	!	!	!	!	!LO:TX:t=P:problem=kreska pseudotaktowa	!
.	.	2.g\	-pe	2G,/	-nam	1b	-sti
*	*	*	*	*	*Xij	*	*
.	.	.	.	1g	ac-	.	.
!	!	!LO:TX:t=P:problem=kreska pseudotaktowa	!	!	!	!	!
.	.	4f\	co-	.	.	.	.
!	!	!	!	!	!	!LO:TX:t=P:problem=kreska pseudotaktowa	!
1c	ac-	4e\	-ro-	.	.	0r	.
.	.	4d\	.	.	.	.	.
.	.	1c\	.	2e\	-ci-	.	.
=16-	=16-	=16-	=16-	=16-	=16-	=16-	=16-
2A\	-ci-	.	.	1f	-pe	.	.
1B-X	-pe	1d	.	.	.	.	.
.	.	.	.	2b-X\	Co-	2r	.
!LO:TX:t=P:problem=kreska pseudotaktowa	!	!	!	!	!	!	!
2c\	co-	1e\	.	1g\	-ro-	1cc\	ac-
!LO:LB:g=original	!	!	!	!	!	!	!
=17-	=17-	=17-	=17-	=17-	=17-	=17-	=17-
1A	-ro-	.	.	.	.	.	.
!	!	!	!	!	!	!LO:TX:t=P:problem=kreska pseudotaktowa	!
.	.	4d\	.	2f#X\	.	2a/	-ci-
!	!	!LO:TX:t=P:problem=kreska pseudotaktowa	!	!	!	!	!
.	.	4c\	.	.	.	.	.
!	!	!	!	!LO:TX:t=P:problem=kreska pseudotaktowa	!	!	!
2G,\	-nam	2d\	nam	1g	-nam	2b-X\	-pe
!	!	!	!	!	!	!LO:TX:t=P:problem=kreska pseudotaktowa	!
2E/	co-	2e\	co-	.	.	2cc\	co-
=18-	=18-	=18-	=18-	=18-	=18-	=18-	=18-
4F/	-ro-	4c\	-ro-	2r	.	4a/	-ro-
8E/L	.	4d\	.	.	.	4bn/	.
8D/J	.	.	.	.	.	.	.
!LO:TX:t=P::problem=kreska pseudotaktowa&colon;między nutą a kropką, połączone ligaturą	!	!	!	!	!	!	!
2.C/	.	4e\	.	2g\	ac-	4cc\	.
!	!	!	!	!	!	!LO:TX:t=P:problem=kreska pseudotaktowa	!
.	.	4f\	.	.	.	4dd\	.
!	!	!LO:TX:t=P:problem=kreska pseudotaktowa	!	!	!	!	!
.	.	1g	-nam	2e\	-ci-	2.ee\	.
4D/	.	.	.	.	.	.	.
4E/	.	.	.	1g\	-pe	.	.
4F/	.	.	.	.	.	8dd\L	.
.	.	.	.	.	.	8cc\J	.
=19-	=19-	=19-	=19-	=19-	=19-	=19-	=19-
!	!	!LO:TX:t=P:problem=kreska pseudotaktowa	!	!	!	!	!
4G\	.	1rg	.	.	.	4bn\	.
8F\L	.	.	.	.	.	4cc\	.
8E\J	.	.	.	.	.	.	.
!LO:TX:t=P:problem=kreska pseudotaktowa	!	!	!	!	!	!	!
2D/	.	.	.	2f#X\	co-	2dd\	.
!	!	!	!	!	!	!LO:TX:t=P:problem=kreska pseudotaktowa	!
2G,\	-nam	1d	ac-	2.g\	-ro-	1bn,	-nam
1G\	ac-	.	.	.	.	.	.
.	.	.	.	8fn\L	.	.	.
.	.	.	.	8e\J	.	.	.
=20-	=20-	=20-	=20-	=20-	=20-	=20-	=20-
.	.	2B/	-ci-	2d/	.	2.g/	ac-
!LO:TX:t=P:problem=kreska pseudotaktowa	!	!	!	!LO:TX:t=P:problem=kreska pseudotaktowa	!	!	!
2E/	-ci-	2.c/	-pe	2e,/	-nam	.	.
!	!	!	!	!	!	!LO:TX:t=P:problem=kreska pseudotaktowa	!
.	.	.	.	.	.	4g/	-ci-
2F\	-pe	.	.	2r	.	2a/	-pe
.	.	4A/	co-	.	.	.	.
!LO:TX:t=P:problem=kreska pseudotaktowa	!	!LO:TX:t=P::problem=kreska pseudotaktowa&colon;między nutą a kropką,połączone ligaturą	!	!LO:TX:t=P:problem=kreska pseudotaktowa	!	!	!
2G\	co-	2.d\	-ro-	2g\	quam	2b\	co-
=21-	=21-	=21-	=21-	=21-	=21-	=21-	=21-
!	!	!	!	!	!	!LO:TX:t=P:problem=kreska pseudotaktowa	!
1A	-ro-	.	.	2e\	ti-	1cc	-ro-
.	.	4c\	.	.	.	.	.
.	.	4c/	.	2f\	-bi	.	.
.	.	8B/L	.	.	.	.	.
.	.	8A/J	.	.	.	.	.
!LO:TX:t=P:problem=kreska pseudotaktowa	!	!	!	!	!	!LO:LB:g=original	!
1G	-nam,	2d,\	-nam	2g\	Do-	2b,\	-nam
.	.	2G/	Ve-	2g\	-mi-	4dd\	Co-
.	.	.	.	.	.	4cc\	.
=22-	=22-	=22-	=22-	=22-	=22-	=22-	=22-
!	!	!LO:TX:t=P:problem=kreska pseudotaktowa	!	!LO:TX:t=P:problem=kreska pseudotaktowa	!	!	!
0G	Ve-	1d	-ni	1g	-n(us)	4b/	-ro-
.	.	.	.	.	.	4a/	.
!	!	!	!	!	!	!LO:TX:t=P:problem=kreska pseudotaktowa	!
.	.	.	.	.	.	2g/	-nam
!	!	!	!	!LO:LB:g=original	!	!	!
!	!	!	!	!LO:TX:t=P:problem=kreska pseudotaktowa	!	!	!
.	.	1d	Spon-	1r	.	00r	.
=23-	=23-	=23-	=23-	=23-	=23-	=23-	=23-
!LO:TX:t=P:problem=kreska pseudotaktowa	!	!	!	!	!	!	!
1E	-ni	1e,	-sa	0g	ac-	.	.
1G	Spon-	2.d\	Chri-	.	.	.	.
.	.	8c/L	.	.	.	.	.
.	.	8B/J	.	.	.	.	.
=24-	=24-	=24-	=24-	=24-	=24-	=24-	=24-
!LO:TX:t=P:problem=kreska pseudotaktowa	!	!	!	!	!	!	!
1A	-sa	4c\	.	1e	-ci-	.	.
.	.	4d\	.	.	.	.	.
.	.	4e\	.	.	.	.	.
.	.	4c\	.	.	.	.	.
!	!	!	!	!	!	!LO:TX:t=P:problem=kreska pseudotaktowa	!
2.G\	Chri-	2d\	.	1g	-pe	0r	.
!	!	!LO:TX:t=P:problem=kreska pseudotaktowa	!	!	!	!	!
.	.	2e\	.	.	.	.	.
8F\L	.	.	.	.	.	.	.
!LO:TX:t=P:problem=kreska pseudotaktowa	!	!	!	!	!	!	!
8E\J	.	.	.	.	.	.	.
!	!	!LO:LB:g=original	!	!	!	!	!
=25-	=25-	=25-	=25-	=25-	=25-	=25-	=25-
4F\	.	2A,/	-sti	1a	Co-	.	.
4G\	.	.	.	.	.	.	.
4A\	.	1c	Spon-	.	.	.	.
!LO:TX:t=P:problem=kreska pseudotaktowa	!	!	!	!	!	!	!
4F\	.	.	.	.	.	.	.
1G	.	.	.	4g\	-ro-	0dd	ac-
.	.	.	.	4d\	.	.	.
.	.	2B/	-sa	1g\	.	.	.
=26-	=26-	=26-	=26-	=26-	=26-	=26-	=26-
!LO:TX:t=P:problem=kreska pseudotaktowa	!	!	!	!	!	!	!
1D	-sti	1A	Chri-	.	.	.	.
.	.	.	.	2f#X\	.	.	.
*custos:G	*	*	*	*	*	*	*
!LO:TX:t=P:problem=kreska pseudotaktowa	!	!	!	!LO:TX:t=P:problem=kreska pseudotaktowa	!	!LO:TX:t=P:problem=kreska pseudotaktowa	!
1rc	.	2.G/	-sti	1g,	-nam	1b	-ci-
.	.	4A/	.	.	.	.	.
!LO:LB:g=original	!	!	!	!	!	!	!
=27-	=27-	=27-	=27-	=27-	=27-	=27-	=27-
1G	Ve-	4B/	.	1g	ac-	1dd,	-pe
.	.	4c/	.	.	.	.	.
!	!	!LO:TX:t=P:problem=kreska pseudotaktowa	!	!	!	!	!
.	.	2d\	.	.	.	.	.
!LO:TX:t=P:problem=kreska pseudotaktowa	!	!	!	!	!	!	!
1C	-ni	2G,/	.	2g\	-ci-	1ee	Co-
.	.	1g\	Ve-	1cc\	-pe	.	.
=28-	=28-	=28-	=28-	=28-	=28-	=28-	=28-
1.G	Spon-	.	.	.	.	2.dd\	-ro-
!	!	!LO:TX:t=P:problem=kreska pseudotaktowa	!	!	!	!	!
.	.	2g\	-ni	4bny\	.	.	.
!	!	!	!	!LO:TX:t=P:problem=kreska pseudotaktowa	!	!LO:TX:t=P:problem=kreska pseudotaktowa	!
.	.	.	.	4a\	.	4cc\	.
.	.	2d\	Spon-	1g	.	4b\	.
.	.	.	.	.	.	8a\L	.
.	.	.	.	.	.	8b\J	.
!LO:TX:t=P:problem=kreska pseudotaktowa	!	!	!	!	!	!LO:TX:t=P:problem=kreska pseudotaktowa	!
2E/	-sa	2e\	-sa	.	.	2cc\	.
=29-	=29-	=29-	=29-	=29-	=29-	=29-	=29-
!	!	!	!	!LO:TX:t=P:problem=kreska pseudotaktowa	!	!	!
2.F/	Chri-	1.c	X-	1a	Co-	2a/	-nam
!	!	!	!	!	!	!LO:TX:t=P:problem=kreska pseudotaktowa	!
.	.	.	.	.	.	[<2ff\	ac-
!LO:TX:t=P:problem=kreska pseudotaktowa	!	!	!	!	!	!	!
4E/	.	.	.	.	.	.	.
1D	.	.	.	4fn\	-ro-	2ff\]	.
.	.	.	.	4g\	.	.	.
!	!	!LO:TX:t=P:problem=kreska pseudotaktowa	!	!	!	!	!
.	.	2B/	.	4a\	.	2ff\	-ci-
.	.	.	.	4f\	.	.	.
=30-	=30-	=30-	=30-	=30-	=30-	=30-	=30-
!LO:TX:t=P:problem=kreska pseudotaktowa	!	!	!	!	!	!	!
1C	sti	2c,\	-ti	2g,\	-nam	2een,\	-pe
*	*	*	*	*	*ij	*	*
!	!	!	!	!	!	!LO:TX:t=P:problem=kreska pseudotaktowa	!
.	.	1g	ac-	2e/	Co-	2cc\	Co-
!LO:TX:t=P:problem=kreska pseudotaktowa	!	!	!	!	!	!	!
0r	.	.	.	1d	-ro-	4dd\	-ro-
.	.	.	.	.	.	8cc\L	.
.	.	.	.	.	.	8b\J	.
!	!	!LO:TX:t=P:problem=kreska pseudotaktowa	!	!	!	!	!
.	.	2f\	-ci-	.	.	2a/	.
=31-	=31-	=31-	=31-	=31-	=31-	=31-	=31-
!	!	!	!	!	!	!LO:TX:t=P:problem=kreska pseudotaktowa	!
.	.	2.g\	-pe	2G,/	-nam	1bn	-nam
*	*	*	*	*	*Xij	*	*
.	.	.	.	1g	ac-	.	.
.	.	4f\	co-	.	.	.	.
!LO:TX:t=P:problem=kreska pseudotaktowa	!	!	!	!	!	!LO:TX:t=P:problem=kreska pseudotaktowa	!
1c	ac-	4e\	-ro-	.	.	0r	.
.	.	4d\	.	.	.	.	.
!	!	!LO:TX:t=P:problem=kreska pseudotaktowa	!	!	!	!	!
.	.	[<2c\	.	2e\	-ci-	.	.
=32-	=32-	=32-	=32-	=32-	=32-	=32-	=32-
2A\	-ci-	2c\]	.	1f	-pe	.	.
1B-X	-pe	1d	.	.	.	.	.
.	.	.	.	2b-X\	Co-	2ree	.
2c\	co-	1e\	.	1g\	-ro-	1cc\	ac-
=33-	=33-	=33-	=33-	=33-	=33-	=33-	=33-
!LO:TX:t=P:problem=kreska pseudotaktowa	!	!	!	!	!	!	!
1A	-ro-	.	.	.	.	.	.
!	!	!	!	!	!	!LO:TX:t=P:problem=kreska pseudotaktowa	!
.	.	4d\	.	2f#X\	.	2a/	-ci-
!	!	!LO:TX:t=P:problem=kreska pseudotaktowa	!	!	!	!	!
.	.	4c\	.	.	.	.	.
!	!	!	!	!LO:TX:t=P:problem=kreska pseudotaktowa	!	!	!
2G,\	-nam	2d,\	-nam	1g	-nam	2b-X\	-pe
*	*	*	*	*	*	*custos:a	*
!LO:TX:t=P:problem=kreska pseudotaktowa	!	!	!	!	!	!LO:TX:t=P:problem=kreska pseudotaktowa	!
2E/	Co-	2e\	co-	.	.	2cc\	co-
!	!	!	!	!LO:LB:g=original	!	!LO:LB:g=original	!
=34-	=34-	=34-	=34-	=34-	=34-	=34-	=34-
4F/	-ro-	4c\	-ro-	2r	.	4a/	-ro-
8E/L	.	4d\	.	.	.	4bn/	.
8D/J	.	.	.	.	.	.	.
!LO:TX:t=P::problem=kreska pseudotaktowa&colon;między nutą a kropką, połączone ligaturą	!	!	!	!	!	!	!
2.C/	.	4e\	.	2g\	ac-	4cc/	.
!	!	!	!	!	!	!LO:TX:t=P:problem=kreska pseudotaktowa	!
.	.	4f\	.	.	.	4dd/	.
!	!	!LO:TX:t=P:problem=kreska pseudotaktowa	!	!	!	!	!
.	.	1g	-nam	2e\	-ci-	2.ee\	.
4D/	.	.	.	.	.	.	.
4E/	.	.	.	1g\	-pe	.	.
!LO:TX:t=P:problem=kreska pseudotaktowa	!	!	!	!	!	!	!
4F/	.	.	.	.	.	8dd\L	.
!	!	!	!	!	!	!LO:TX:t=P:problem=kreska pseudotaktowa	!
.	.	.	.	.	.	8cc\J	.
!	!	!LO:LB:g=original	!	!	!	!	!
=35-	=35-	=35-	=35-	=35-	=35-	=35-	=35-
!	!	!LO:TX:t=P:problem=kreska pseudotaktowa	!	!	!	!	!
4G\	.	1rg	.	.	.	4b\	.
8F\L	.	.	.	.	.	4cc\	.
8E\J	.	.	.	.	.	.	.
!LO:TX:t=P:problem=kreska pseudotaktowa	!	!	!	!LO:TX:t=P:problem=kreska pseudotaktowa	!	!	!
2D/	.	.	.	2f#X\	co-	2dd\	.
!	!	!	!	!	!	!LO:TX:t=P:problem=kreska pseudotaktowa	!
2G,\	-nam,	1d	ac-	2.g\	-ro-	1bn,	-nam
1G\	ac-	.	.	.	.	.	.
.	.	.	.	8fn\L	.	.	.
.	.	.	.	8e\J	.	.	.
=36-	=36-	=36-	=36-	=36-	=36-	=36-	=36-
.	.	2B/	-ci-	2d/	.	2.g/	ac-
!LO:TX:t=P:problem=kreska pseudotaktowa	!	!	!	!LO:TX:t=P:problem=kreska pseudotaktowa	!	!	!
2E/	-ci-	2.c/	-pe	2e\	nam	.	.
!	!	!	!	!	!	!LO:TX:t=P:problem=kreska pseudotaktowa	!
.	.	.	.	.	.	4g/	-ci-
2F\	-pe	.	.	2r	.	2a/	-pe
.	.	4A/	co-	.	.	.	.
!	!	!LO:TX:t=P::problem=kreska pseudotaktowa&colon;między nutą a kropką	!	!	!	!LO:TX:t=P:problem=kreska pseudotaktowa	!
2G\	co-	2.d\	-ro-	2g\	quam	2b\	Co-
=37-	=37-	=37-	=37-	=37-	=37-	=37-	=37-
*custos:G	*	*	*	*	*	*	*
!LO:TX:t=P:problem=kreska pseudotaktowa	!	!	!	!	!	!	!
1A	-ro-	.	.	2e\	Ti-	1cc	-ro-
.	.	4c/	.	.	.	.	.
!	!	!	!	!LO:TX:t=P:problem=kreska pseudotaktowa	!	!	!
.	.	4c/	.	2f\	-bi	.	.
.	.	8B/L	.	.	.	.	.
.	.	8A/J	.	.	.	.	.
!LO:LB:g=original	!	!	!	!	!	!	!
!LO:TX:t=P:problem=kreska pseudotaktowa	!	!	!	!	!	!	!
1G	-nam	2d\	.	2g\	Do-	2bn,\	-nam
!	!	!LO:TX:t=P:problem=kreska pseudotaktowa	!	!	!	!LO:TX:t=P:problem=kreska pseudotaktowa	!
.	.	2G/	-nam	2g\	-mi-	2dd\	quam
=38-	=38-	=38-	=38-	=38-	=38-	=38-	=38-
!LO:TX:t=P:problem=kreska pseudotaktowa	!	!LO:TX:t=P:problem=kreska pseudotaktowa	!	!	!	!	!
0r	.	0r	.	2e,/	-n(us)	2cc\	Ti-
!	!	!	!	!LO:TX:t=P:problem=kreska pseudotaktowa	!	!LO:TX:t=P:problem=kreska pseudotaktowa	!
.	.	.	.	2f\	quam	2a/	-bi
.	.	.	.	2g\	Ti-	2b\	Do-
!	!	!	!	!	!	!LO:TX:t=P:problem=kreska pseudotaktowa	!
.	.	.	.	2a\	-bi	2cc\	.
=39-	=39-	=39-	=39-	=39-	=39-	=39-	=39-
2rE	.	2r	.	2d/	Do-	4dd\	.
.	.	.	.	.	.	4cc\	.
!LO:TX:t=P:problem=kreska pseudotaktowa	!	!	!	!LO:TX:t=P:problem=kreska pseudotaktowa	!	!	!
2D/	quam	2d\	quam	2f\	.	4b\	.
.	.	.	.	.	.	8a\L	.
!	!	!	!	!	!	!LO:TX:t=P:problem=kreska pseudotaktowa	!
.	.	.	.	.	.	8b\J	.
2E/	Ti-	2.c/	Ti-	2g\	.	2cc\	.
!LO:TX:t=P:problem=kreska pseudotaktowa	!	!	!	!	!	!LO:TX:t=P:problem=kreska pseudotaktowa	!
2F/	-bi	.	.	2f\	-mi-	2a/	.
.	.	4A/	-bi	.	.	.	.
=40-	=40-	=40-	=40-	=40-	=40-	=40-	=40-
2G\	Do-	2B/	Do-	2d,/	-n(us)	2g,/	.
!LO:TX:t=P:problem=kreska pseudotaktowa	!	!	!	!LO:TX:t=P:problem=kreska pseudotaktowa	!	!LO:TX:t=P:problem=kreska pseudotaktowa	!
2A\	-mi-	2c/	.	2c/	prae-	2cc\	.
2D,/	-n(us)	2.d\	.	2f\	-pa-	2a/	.
!	!	!	!	!	!	!LO:TX:t=P:problem=kreska pseudotaktowa	!
1d\	prae-	.	.	1f\	-ra-	2b-X/	.
.	.	4d\	-mi-	.	.	.	.
=41-	=41-	=41-	=41-	=41-	=41-	=41-	=41-
!	!	!LO:TX:t=P:problem=kreska pseudotaktowa	!	!	!	!	!
.	.	1A	-n(us)	.	.	2.a/	.
!LO:TX:t=P:problem=kreska pseudotaktowa	!	!	!	!	!	!	!
2c\	-pa-	.	.	2e,\	-vit	.	.
!	!	!	!	!	!	!LO:TX:t=P:problem=kreska pseudotaktowa	!
.	.	.	.	.	.	4bny/	-mi-
!	!	!LO:TX:t=P:problem=kreska pseudotaktowa	!	!	!	!	!
4A\	-ra-	00r	.	(4c/	in	2cc\	-nus
4Bny\	.	.	.	4d/)	.	.	.
!	!	!	!	!	!	!LO:TX:t=P:problem=kreska pseudotaktowa	!
4c\	.	.	.	(4e/	ae-	2ra	.
*	*	*	*	*custos:d	*	*	*
!LO:TX:t=P:problem=kreska pseudotaktowa	!	!	!	!LO:TX:t=P:problem=kreska pseudotaktowa	!	!	!
4A\	.	.	.	4c/)	.	.	.
!	!	!	!	!LO:LB:g=original	!	!LO:LB:g=original	!
=42-	=42-	=42-	=42-	=42-	=42-	=42-	=42-
4Bn\	.	.	.	4d/	-ter-	2r	.
4c\	.	.	.	4e/	.	.	.
!LO:TX:t=P:problem=kreska pseudotaktowa	!	!	!	!	!	!	!
2d\	.	.	.	1f	.	1dd	prae-
2A,\	-vit	.	.	.	.	.	.
!	!	!	!	!	!	!LO:TX:t=P:problem=kreska pseudotaktowa	!
1A\	prae-	.	.	4e/	.	2cc\	-pa-
!	!	!	!	!LO:TX:t=P:problem=kreska pseudotaktowa	!	!	!
.	.	.	.	4d/	.	.	.
=43-	=43-	=43-	=43-	=43-	=43-	=43-	=43-
.	.	.	.	2e\	.	4a/	-ra-
.	.	.	.	.	.	4b/	.
!LO:TX:t=P:problem=kreska pseudotaktowa	!	!	!	!	!	!	!
2F\	-pa-	.	.	2a\	.	4cc/	.
.	.	.	.	.	.	4a/	.
4G\	-ra-	2r	.	4d/	.	4b\	.
8F\L	.	.	.	4e/	.	4cc\	.
8E\J	.	.	.	.	.	.	.
!	!	!	!	!	!	!LO:TX:t=P:problem=kreska pseudotaktowa	!
4D/	.	1d\	prae-	4f/	.	2dd\	.
!LO:TX:t=P:problem=kreska pseudotaktowa	!	!	!	!LO:TX:t=P:problem=kreska pseudotaktowa	!	!	!
4E/	.	.	.	4g/	.	.	.
=44-	=44-	=44-	=44-	=44-	=44-	=44-	=44-
4F\	.	.	.	2f\	.	2a,/	-vit
4G\	.	.	.	.	.	.	.
!	!	!LO:TX:t=P:problem=kreska pseudotaktowa	!	!	!	!	!
1A	.	2c\	-pa-	4e/	.	1cc	in
.	.	.	.	4d/	.	.	.
.	.	4A/	-ra-	2e\	.	.	.
.	.	4B/	.	.	.	.	.
!LO:TX:t=P:problem=kreska pseudotaktowa	!	!	!	!LO:TX:t=P:problem=kreska pseudotaktowa	!	!LO:TX:t=P:problem=kreska pseudotaktowa	!
2F\	vit	4c/	.	2f\	.	2a/	ae-
.	.	4A/	.	.	.	.	.
=45-	=45-	=45-	=45-	=45-	=45-	=45-	=45-
2G\	in	4B/	.	2d/	.	4g/	-ter-
.	.	4c/	.	.	.	4a/	.
!LO:TX:t=P:problem=kreska pseudotaktowa	!	!	!	!	!	!	!
2G\	ae-	2d\	.	2.g\	.	4b/	.
.	.	.	.	.	.	4cc/	.
!	!	!LO:TX:t=P:problem=kreska pseudotaktowa	!	!	!	!LO:TX:t=P:problem=kreska pseudotaktowa	!
1D	-ter-	1d	-vit	.	.	1dd	.
.	.	.	.	4f\	.	.	.
.	.	.	.	4f\	.	.	.
.	.	.	.	8e\L	.	.	.
!	!	!	!	!LO:TX:t=P:problem=kreska pseudotaktowa	!	!	!
.	.	.	.	8d\J	.	.	.
=46-	=46-	=46-	=46-	=46-	=46-	=46-	=46-
!LO:TX:t=P:problem=kreska pseudotaktowa	!	!	!	!	!	!	!
1G,	-num	2r	.	1.g	.	2.b\	.
!	!	!LO:TX:t=P:problem=kreska pseudotaktowa	!	!	!	!	!
.	.	2g\	quam	.	.	.	.
.	.	.	.	.	.	4cc\	.
!LO:LB:g=original	!	!	!	!	!	!	!
2rE	.	2.d\	Ti-	.	.	2dd,\	-num
!LO:TX:t=P:problem=kreska pseudotaktowa	!	!	!	!LO:TX:t=P:problem=kreska pseudotaktowa	!	!LO:TX:t=P:problem=kreska pseudotaktowa	!
2D/	quam	.	.	2f,\	-num	2dd\	quam
.	.	4d\	-bi	.	.	.	.
=47-	=47-	=47-	=47-	=47-	=47-	=47-	=47-
*	*	*	*ij	*	*	*	*
2E/	Ti-	2.c/	Ti-	2g\	in	2cc\	Ti-
!LO:TX:t=P:problem=kreska pseudotaktowa	!	!	!	!LO:TX:t=P:problem=kreska pseudotaktowa	!	!LO:TX:t=P:problem=kreska pseudotaktowa	!
2F/	-bi	.	.	2f\	ae-	2a/	.
!	!	!LO:TX:t=P:problem=kreska pseudotaktowa	!	!	!	!	!
.	.	4A/	-bi	.	.	.	.
*	*	*	*Xij	*	*	*	*
!	!	!LO:LB:g=original	!	!	!	!	!
2G\	Do-	2B/	Do-	2d/	-ter-	2g/	-bi
!LO:TX:t=P:problem=kreska pseudotaktowa	!	!	!	!	!	!LO:TX:t=P:problem=kreska pseudotaktowa	!
2A\	-mi-	2c/	.	2c/	.	2cc\	Do-
=48-	=48-	=48-	=48-	=48-	=48-	=48-	=48-
2D/	-n(us)	2.d\	.	2f\	-num	2a/	.
!	!	!	!	!	!	!LO:TX:t=P:problem=kreska pseudotaktowa	!
1d	prae-	.	.	1f	prae-	2b-X/	.
.	.	4d\	mi-	.	.	.	.
!	!	!LO:TX:t=P:problem=kreska pseudotaktowa	!	!	!	!	!
.	.	1A	-n(us)	.	.	2.a/	.
!LO:TX:t=P:problem=kreska pseudotaktowa	!	!	!	!LO:TX:t=P:problem=kreska pseudotaktowa	!	!	!
2c\	-pa-	.	.	2e\	-pa-	.	.
!	!	!	!	!	!	!LO:TX:t=P:problem=kreska pseudotaktowa	!
.	.	.	.	.	.	4bny/	-mi-
=49-	=49-	=49-	=49-	=49-	=49-	=49-	=49-
!	!	!LO:TX:t=P:problem=kreska pseudotaktowa	!	!	!	!	!
4A\	-ra-	00r	.	4c/	-ra-	2cc\	-n(us)
4B\	.	.	.	4d/	.	.	.
!	!	!	!	!	!	!LO:TX:t=P:problem=kreska pseudotaktowa	!
4c\	.	.	.	4e/	.	2ra	.
!LO:TX:t=P:problem=kreska pseudotaktowa	!	!	!	!	!	!	!
4A\	.	.	.	4c/	.	.	.
4B\	.	.	.	4d/	.	2r	.
4c\	.	.	.	4e/	.	.	.
!LO:TX:t=P:problem=kreska pseudotaktowa	!	!	!	!	!	!	!
2d\	.	.	.	1f\	.	1dd\	prae-
=50-	=50-	=50-	=50-	=50-	=50-	=50-	=50-
2A,\	-vit	.	.	.	.	.	.
!	!	!	!	!	!	!LO:TX:t=P:problem=kreska pseudotaktowa	!
1A	in	.	.	4e/	.	2cc\	-pa-
!	!	!	!	!LO:TX:t=P:problem=kreska pseudotaktowa	!	!	!
.	.	.	.	4d/	.	.	.
!	!	!	!	!LO:LB:g=original	!	!	!
.	.	.	.	2e\	.	4a/	-ra-
.	.	.	.	.	.	4b/	.
!LO:TX:t=P:problem=kreska pseudotaktowa	!	!	!	!	!	!	!
2F\	ae-	.	.	2a\	-vit	4cc/	.
!	!	!	!	!	!	!LO:TX:t=P:problem=kreska pseudotaktowa	!
.	.	.	.	.	.	4a/	.
!	!	!	!	!	!	!LO:LB:g=original	!
=51-	=51-	=51-	=51-	=51-	=51-	=51-	=51-
4G\	-ter-	2r	.	(4d/	in	4b\	.
8F\L	.	.	.	4e/)	.	4cc\	.
8E\J	.	.	.	.	.	.	.
!	!	!	!	!	!	!LO:TX:t=P:problem=kreska pseudotaktowa	!
4D/	.	1d	prae-	(4f/	ae-	2dd\	.
!LO:TX:t=P:problem=kreska pseudotaktowa	!	!	!	!LO:TX:t=P:problem=kreska pseudotaktowa	!	!	!
4E/	.	.	.	4g/)	.	.	.
4F\	.	.	.	2f\	-ter-	2a,/	-vit
4G\	.	.	.	.	.	.	.
!	!	!LO:TX:t=P:problem=kreska pseudotaktowa	!	!	!	!	!
1A\	.	2c\	-pa-	4e/	.	1cc\	in-
.	.	.	.	4d/	.	.	.
=52-	=52-	=52-	=52-	=52-	=52-	=52-	=52-
.	.	4A/	-ra-	2e\	.	.	.
.	.	4B/	.	.	.	.	.
!LO:TX:t=P:problem=kreska pseudotaktowa	!	!	!	!LO:TX:t=P:problem=kreska pseudotaktowa	!	!LO:TX:t=P:problem=kreska pseudotaktowa	!
2F\	-num	4c/	.	2f\	.	2a/	-ae-
.	.	4A/	.	.	.	.	.
2G\	in	4B/	.	2d/	.	4g/	-ter-
.	.	4c/	.	.	.	4a/	.
!LO:TX:t=P:problem=kreska pseudotaktowa	!	!	!	!	!	!	!
2G\	ae-	2d\	.	2.g\	.	4b\	.
.	.	.	.	.	.	4cc\	.
=53-	=53-	=53-	=53-	=53-	=53-	=53-	=53-
!LO:TX:t=P:problem=kreska pseudotaktowa	!	!LO:TX:t=P:problem=kreska pseudotaktowa	!	!	!	!LO:TX:t=P:problem=kreska pseudotaktowa	!
1D	-ter-	1d	-vit	.	.	1dd	.
.	.	.	.	4f\	.	.	.
.	.	.	.	4f\	.	.	.
.	.	.	.	8e\L	.	.	.
.	.	.	.	8d\J	.	.	.
!LO:TX:t=P:problem=kreska pseudotaktowa	!	!	!	!	!	!	!
1G	-num	2r	.	1g	.	2.b\	.
!	!	!LO:TX:t=P:problem=kreska pseudotaktowa	!	!	!	!	!
.	.	[<2g\	prae-	.	.	.	.
.	.	.	.	.	.	4cc\	.
=54-	=54-	=54-	=54-	=54-	=54-	=54-	=54-
!	!	!	!	!	!	!LO:TX:t=P:problem=kreska pseudotaktowa	!
0r	.	2g\]	.	2d,/	-num	1dd	-num
.	.	2fn\	-pa-	1a	in	.	.
.	.	4d\	-ra-	.	.	2r	.
.	.	4e\	.	.	.	.	.
.	.	4f\	.	2f\	ae-	1dd\	prae-
!	!	!LO:TX:t=P:problem=kreska pseudotaktowa	!	!	!	!	!
.	.	4d\	.	.	.	.	.
=55-	=55-	=55-	=55-	=55-	=55-	=55-	=55-
*custos:G	*	*	*	*	*	*	*
!LO:TX:t=P:problem=kreska pseudotaktowa	!	!	!	!	!	!	!
1r	.	2e\	.	2g\	-ter-	.	.
!	!	!	!	!	!	!LO:TX:t=P:problem=kreska pseudotaktowa	!
.	.	2f\	vit	2a\	.	2cc\	-pa-
!LO:LB:g=original	!	!	!	!	!	!	!
2r	.	2.d\	in	2f\	.	(2a/	-ra-
!	!	!	!	!	!	!LO:TX:t=P:problem=kreska pseudotaktowa	!
1G\	prae-	.	.	2g\	.	2b-X/)	.
!	!	!LO:TX:t=P:problem=kreska pseudotaktowa	!	!	!	!	!
.	.	4c/	ae-	.	.	.	.
=56-	=56-	=56-	=56-	=56-	=56-	=56-	=56-
.	.	2B-X/	-ter-	2.d/	.	2g/	.
!LO:TX:t=P:problem=kreska pseudotaktowa	!	!	!	!	!	!	!
2F\	-pa-	2A/	.	.	.	2a,/	vit
.	.	.	.	4e/	.	.	.
!	!	!LO:TX:t=P:problem=kreska pseudotaktowa	!	!	!	!	!
4D/	-ra-	1d	.	4f\	.	2.bn\	in
4E/	.	.	.	4g\	.	.	.
4F/	.	.	.	4a\	.	.	.
!LO:TX:t=P:problem=kreska pseudotaktowa	!	!	!	!LO:TX:t=P:problem=kreska pseudotaktowa	!	!LO:TX:t=P:problem=kreska pseudotaktowa	!
4D/	.	.	.	4f\	.	4b\	ae-
=57-	=57-	=57-	=57-	=57-	=57-	=57-	=57-
4E/	.	2G,/	-num	1g	.	2cc\	-ter-
4F/	.	.	.	.	.	.	.
*	*	*custos:c	*	*	*	*	*
!LO:TX:t=P:problem=kreska pseudotaktowa	!	!LO:TX:t=P:problem=kreska pseudotaktowa	!	!	!	!	!
!	!	!	!	!	!	!LO:TX:t=P:problem=kreska pseudotaktowa	!
2G\	.	2d\	in	.	.	2b\	-num
!	!	!LO:LB:g=original	!	!	!	!LO:TX:t=P:problem=kreska pseudotaktowa	!
2C/	-vit	2c/	ae-	2e,\	-num	1rff	.
1F\	in	4A/	-ter-	1a\	in	.	.
!	!	!LO:TX:t=P:problem=kreska pseudotaktowa	!	!	!	!	!
.	.	4Bny/	.	.	.	.	.
=58-	=58-	=58-	=58-	=58-	=58-	=58-	=58-
.	.	4c/	.	.	.	2r	.
.	.	4A/	.	.	.	.	.
!LO:TX:t=P:problem=kreska pseudotaktowa	!	!	!	!LO:TX:t=P:problem=kreska pseudotaktowa	!	!	!
2G\	ae-	2B/	.	2g\	ae-	1dd	prae-
!	!	!LO:TX:t=P:problem=kreska pseudotaktowa	!	!	!	!	!
2.A\	-ter-	0c	-num	2f\	-ter-	.	.
!	!	!	!	!	!	!LO:TX:t=P:problem=kreska pseudotaktowa	!
.	.	.	.	2e\	.	2cc\	-pa-
!LO:TX:t=P:problem=kreska pseudotaktowa	!	!	!	!	!	!	!
4G\	.	.	.	.	.	.	.
=59-	=59-	=59-	=59-	=59-	=59-	=59-	=59-
!LO:TX:t=P:problem=kreska pseudotaktowa	!	!	!	!	!	!	!
1F	-num	.	.	2f\	.	4a/	-ra-
.	.	.	.	.	.	4b/	.
.	.	.	.	2a\	.	4cc/	.
!	!	!	!	!	!	!LO:TX:t=P:problem=kreska pseudotaktowa	!
.	.	.	.	.	.	4a/	.
!	!	!	!	!LO:TX:t=P:problem=kreska pseudotaktowa	!	!	!
2.G\	in	2r	.	0g	-num	4b\	.
.	.	.	.	.	.	4cc\	.
!	!	!	!	!	!	!LO:TX:t=P:problem=kreska pseudotaktowa	!
.	.	2.g\	in	.	.	2dd\	.
!LO:TX:t=P:problem=kreska pseudotaktowa	!	!	!	!	!	!	!
4F/	ae-	.	.	.	.	.	.
!	!	!	!	!	!	!LO:LB:g=original	!
=60-	=60-	=60-	=60-	=60-	=60-	=60-	=60-
4E/	-ter-	.	.	.	.	2g,/	-vit
4D/	.	4f\	.	.	.	.	.
!LO:TX:t=P:problem=kreska pseudotaktowa	!	!	!	!	!	!	!
2C,/	-num	4e\	ae-	.	.	1cc	in
!	!	!LO:TX:t=P:problem=kreska pseudotaktowa	!	!	!	!	!
.	.	4d\	.	.	.	.	.
!LO:TX:t=P:problem=kreska pseudotaktowa	!	!	!	!	!	!	!
1c	in	1e	ter-	1g	in	.	.
!	!	!	!	!	!	!LO:TX:t=P:problem=kreska pseudotaktowa	!
.	.	.	.	.	.	2cc\	ae-
=61-	=61-	=61-	=61-	=61-	=61-	=61-	=61-
!	!	!LO:TX:t=P:problem=kreska pseudotaktowa	!	!	!	!	!
1B	ae-	1d	.	1g	ae-	1dd	-ter-
0c	ter-	0e	.	0g	-ter-	0cc	.
=62-	=62-	=62-	=62-	=62-	=62-	=62-	=62-
.	.	.	.	.	.	.	.
0Gl;	-num.	0dl;	-num	0gl;	-num	0bl;	-num.
==	==	==	==	==	==	==	==
*-	*-	*-	*-	*-	*-	*-	*-
!!!system-decoration: [s1,s2,s3,s4]
!!!RDF**kern: < = below
!!!RDF**kern: l = terminal long
!!!ENC: Marta Lawrence
!!!END: 2021-03-14
!!!ENC: Krzysztof Stępień
!!!END: 2021-02-25
